X: 201
T: Miss Fairfax's Strathspey
R: strathspey
Q: "Slow"
B: William Shepherd "2nd Collection" 1800 p.20 #1
F: http://imslp.org/wiki/File:PMLP73094-Shepherd_Collections_HMT.pdf
C: William Shepherd (17??-1812)
Z: 2012 John Chambers <jc:trillian.mit.edu>
M: C
L: 1/16
K: D
F2 |\
DEFG A3TF d3TF A3TF | D2d2 {g}f2ed e3[EC][E3C3]F |\
DEFG A3TF d3TF A3TF | B3d efge f2d2d2 :|
fg |\
a3df3a A3dF3d | a3d {g}f2.e.d E3e e2fg |\
a3df3a A3dF3d | G3B {A}G2.F.E D2d2- Td2fg |
a3df3a A3dF3d | f2fa (gf).e.d c3ee3g |\
f3ac3e d3fF3A | G3B {A}G2.F.E D2d2 d2 |]
